assets/sonr-icons/home.svg

<svg xmlns="http://www.w3.org/2000/svg" width="24" height="24" fill="none" viewBox="0 0 24 24"><path fill="#000" d="M12 15C11.448 15 11 15.448 11 16V20C11 20.552 10.552 21 10 21C9.448 21 9 20.552 9 20V16C9 14.343 10.343 13 12 13C13.657 13 15 14.343 15 16V20C15 20.552 14.552 21 14 21C13.448 21 13 20.552 13 20V16C13 15.448 12.552 15 12 15Z"/><path fill="#000" d="M12.489 5.06004C12.168 4.97904 11.832 4.97904 11.511 5.06004C11.192 5.14004 10.869 5.35004 9.79997 6.10904L6.59997 8.38103C5.81097 8.94103 5.58597 9.11204 5.42897 9.31204C5.27197 9.51204 5.15297 9.74104 5.08097 9.98604C5.00897 10.23 4.99997 10.512 4.99997 11.48V15.202C4.99997 16.058 5.00097 16.641 5.03797 17.091C5.07397 17.53 5.13897 17.754 5.21897 17.91C5.41097 18.287 5.71697 18.593 6.09297 18.784C6.24997 18.864 6.47297 18.929 6.91197 18.965C7.36197 19.002 7.94497 19.002 8.80097 19.002H15.201C16.057 19.002 16.64 19.001 17.09 18.965C17.529 18.929 17.752 18.864 17.909 18.784C18.286 18.592 18.592 18.286 18.783 17.91C18.863 17.753 18.928 17.53 18.964 17.091C19.001 16.641 19.001 16.059 19.001 15.202V11.48C19.001 10.513 18.991 10.23 18.92 9.98604C18.849 9.74204 18.73 9.51304 18.572 9.31204C18.414 9.11104 18.19 8.94203 17.401 8.38103L14.201 6.10904C13.132 5.35004 12.809 5.14104 12.489 5.06004ZM11.022 3.12004C11.664 2.95804 12.336 2.95804 12.977 3.12004C13.707 3.30504 14.355 3.76404 15.214 4.37504C15.261 4.40904 15.309 4.44304 15.357 4.47604L18.557 6.74804C18.592 6.77304 18.627 6.79804 18.661 6.82204C19.3 7.27504 19.783 7.61803 20.142 8.07203C20.458 8.47303 20.694 8.93004 20.838 9.41903C21.001 9.97503 21.001 10.566 21.001 11.35C21.001 11.392 21.001 11.434 21.001 11.477V15.24C21.001 16.045 21.001 16.709 20.957 17.251C20.911 17.813 20.812 18.33 20.566 18.815C20.183 19.568 19.571 20.179 18.818 20.563C18.333 20.81 17.816 20.909 17.254 20.955C16.712 20.999 16.049 20.999 15.243 20.999H8.76097C7.95597 20.999 7.29197 20.999 6.74997 20.955C6.18797 20.909 5.67097 20.81 5.18597 20.563C4.43297 20.18 3.82197 19.568 3.43797 18.815C3.18997 18.33 3.09197 17.813 3.04597 17.251C3.00197 16.71 3.00197 16.046 3.00197 15.24V11.477C3.00197 11.434 3.00197 11.392 3.00197 11.35C3.00097 10.566 3.00097 9.97403 3.16497 9.41903C3.30897 8.93004 3.54497 8.47203 3.86097 8.07203C4.21897 7.61803 4.70197 7.27504 5.34197 6.82204C5.37697 6.79804 5.41097 6.77304 5.44497 6.74804L8.64497 4.47604C8.69297 4.44104 8.74097 4.40804 8.78797 4.37504C9.64697 3.76404 10.294 3.30404 11.025 3.12004H11.022Z"/></svg>

<svg xmlns="http://www.w3.org/2000/svg" width="24" height="24" fill="none"><path fill="currentColor" d="M12 15a1 1 0 0 0-1 1v4a1 1 0 0 1-2 0v-4a3 3 0 1 1 6 0v4a1 1 0 0 1-2 0v-4a1 1 0 0 0-1-1"/><path fill="currentColor" d="M12.489 5.06a2 2 0 0 0-.978 0c-.319.08-.642.29-1.711 1.049L6.6 8.381c-.789.56-1.014.731-1.171.931s-.276.429-.348.674C5.009 10.23 5 10.512 5 11.48v3.722c0 .856.001 1.439.038 1.889.036.439.101.663.181.819.192.377.498.683.874.874.157.08.38.145.819.181.45.037 1.033.037 1.889.037h6.4c.856 0 1.439-.001 1.889-.037.439-.036.662-.101.819-.181.377-.192.683-.498.874-.874.08-.157.145-.38.181-.819.037-.45.037-1.032.037-1.889V11.48c0-.967-.01-1.25-.081-1.494a2 2 0 0 0-.348-.674c-.158-.201-.382-.37-1.171-.931l-3.2-2.272c-1.069-.759-1.392-.968-1.712-1.049m-1.467-1.94a4 4 0 0 1 1.955 0c.73.185 1.378.644 2.237 1.255l.143.101 3.2 2.272.104.074c.639.453 1.122.796 1.481 1.25.316.401.552.858.696 1.347.163.556.163 1.147.163 1.931v3.89c0 .805 0 1.469-.044 2.011-.046.562-.145 1.079-.391 1.564a4 4 0 0 1-1.748 1.748c-.485.247-1.002.346-1.564.392-.542.044-1.205.044-2.011.044H8.761c-.805 0-1.469 0-2.011-.044-.562-.046-1.079-.145-1.564-.392a4 4 0 0 1-1.748-1.748c-.248-.485-.346-1.002-.392-1.564-.044-.541-.044-1.205-.044-2.011v-3.89c-.001-.784-.001-1.376.163-1.931.144-.489.38-.947.696-1.347.358-.454.841-.797 1.481-1.25l.103-.074 3.2-2.272.143-.101c.859-.611 1.506-1.071 2.237-1.255z"/></svg>
